assets/imgs/search--white.svg

<svg fill="none" height="32" viewBox="0 0 32 32" width="32" xmlns="http://www.w3.org/2000/svg"><path d="m12.6667 21.3333c-2.4223 0-4.47203-.8391-6.14937-2.5173-1.67733-1.6782-2.51644-3.728-2.51733-6.1493 0-2.4223.83911-4.47203 2.51733-6.14937 1.67823-1.67733 3.72797-2.51644 6.14937-2.51733 2.4222 0 4.472.83911 6.1493 2.51733 1.6773 1.67823 2.5164 3.72797 2.5173 6.14937 0 .9777-.1555 1.9-.4666 2.7666-.3111.8667-.7334 1.6334-1.2667 2.3l7.4667 7.4667c.2444.2444.3666.5556.3666.9333 0 .3778-.1222.6889-.3666.9334-.2445.2444-.5556.3666-.9334.3666-.3777 0-.6889-.1222-.9333-.3666l-7.4667-7.4667c-.6666.5333-1.4333.9556-2.3 1.2667-.8666.3111-1.7889.4666-2.7666.4666zm0-2.6666c1.6666 0 3.0835-.5836 4.2506-1.7507s1.7503-2.5836 1.7494-4.2493c0-1.6667-.5836-3.08359-1.7507-4.2507s-2.5836-1.75022-4.2493-1.74933c-1.6667 0-3.08359.58355-4.2507 1.75066s-1.75022 2.58357-1.74933 4.24937c0 1.6666.58355 3.0835 1.75066 4.2506s2.58357 1.7503 4.24937 1.7494z" fill="#fff"/></svg>

<svg width="32" height="32" viewBox="0 0 32 32" fill="none" xmlns="http://www.w3.org/2000/svg">
<path d="M12.6667 21.3333C10.2444 21.3333 8.19467 20.4942 6.51733 18.816C4.84 17.1378 4.00089 15.088 4 12.6667C4 10.2444 4.83911 8.19467 6.51733 6.51733C8.19556 4.84 10.2453 4.00089 12.6667 4C15.0889 4 17.1387 4.83911 18.816 6.51733C20.4933 8.19556 21.3324 10.2453 21.3333 12.6667C21.3333 13.6444 21.1778 14.5667 20.8667 15.4333C20.5556 16.3 20.1333 17.0667 19.6 17.7333L27.0667 25.2C27.3111 25.4444 27.4333 25.7556 27.4333 26.1333C27.4333 26.5111 27.3111 26.8222 27.0667 27.0667C26.8222 27.3111 26.5111 27.4333 26.1333 27.4333C25.7556 27.4333 25.4444 27.3111 25.2 27.0667L17.7333 19.6C17.0667 20.1333 16.3 20.5556 15.4333 20.8667C14.5667 21.1778 13.6444 21.3333 12.6667 21.3333ZM12.6667 18.6667C14.3333 18.6667 15.7502 18.0831 16.9173 16.916C18.0844 15.7489 18.6676 14.3324 18.6667 12.6667C18.6667 11 18.0831 9.58311 16.916 8.416C15.7489 7.24889 14.3324 6.66578 12.6667 6.66667C11 6.66667 9.58311 7.25022 8.416 8.41733C7.24889 9.58444 6.66578 11.0009 6.66667 12.6667C6.66667 14.3333 7.25022 15.7502 8.41733 16.9173C9.58444 18.0844 11.0009 18.6676 12.6667 18.6667Z" fill="white"/>
</svg>
